!!!!SEGMENT: pl-wn--mus-iii-601--004-002_janiewicz-feliks--ive-trio-adagio.krn
!!!cenid: 17xx:2397
!!!COM: Janiewicz, Feliks
!!!COM-rismID: pe30011012
!!!CDT: 1762-1848
!!!CNT: Polish
!!!OPR: Ive Trio
!!!OTL: Adagio
!!!OMV: 002
!!!PDT:
!!!AGN:
!!!YEC: Copyright 2022 Narodowy Instytut Fryderyka Chopina (https://polishscores.org)
!!!YEM: License CC-BY-4.0 (https://creativecommons.org/licenses/by/4.0)
!!!SMS-siglum: PL-Wn
!!!SMS-shelfmark: Mus.III.601
!!!SMS-shelfwork: 004-002 M
!!!SMS-variant:
!!!SMS-altvar:
!!!NIFC-rismSourceID: 990069598
!!!NIFC-rismChildID: 990069598
!!!NIFC-islandoraID: none
!!!URL-pdf-islandora:
!!!URL-scan: https://polona2.pl/item/six-trios-pour-deux-violons-basse,MTAxMDA3MzY2/0/#item @EN{Scan on Polona} @PL{Skany w portalu Polona}
!!!IIIF: https://polona2.pl/iiif/item/MTAxMDA3MzY2/manifest.json
!!!ONB-nifc: UWAGA: źródło zawiera 6 Trio na 2 skrzypiec i wiolonczelę. Violino Primo (od skanu 3), Violino Secondo (od skanu 37), Basso (od skanu 61). Basso to partia wiolonczeli. Części Ie Trio: 1. Allegro moderato, 2. Adagio, 3. Polonese/Allegretto
!!!AIN: 1 cello 2 violn
!!!key: E-
!!!OMD:
!!!OMD-mod: Adagio
**kern	**dynam	**kern	**dynam	**kern	**dynam
*part3	*	*part2	*	*part1	*
*staff3	*	*staff2	*	*staff1	*
*I"BASSO	*	*I"VIOLINO SECONDO	*	*I"VIOLINO PRIMO	*
*mI"Violoncello	*	*mI"Violino II	*	*mI"Violino I	*
*I'b	*	*I'vl 2	*	*I'vl 1	*
*mI'vlc	*	*	*	*	*
*ICstr	*	*ICstr	*	*ICstr	*
*Icello	*	*Ivioln	*	*Ivioln	*
*clefF4	*	*clefG2	*	*clefG2	*
*k[b-e-a-]	*	*k[b-e-a-]	*	*k[b-e-a-]	*
*E-:	*	*E-:	*	*E-:	*
*M2/4	*	*M2/4	*	*M2/4	*
=1	=1	=1	=1	=1	=1
*xywh-#70:705,3734,3345,294	*	*xywh-#51:323,2840,3505,328	*	*xywh-#23:408,609,3417,590	*
*	*	*	*	*^	*
!LO:TX:a:B:t=Adagio:mod=	!	!LO:TX:a:B:t=Adagio:mod=	!	!LO:TX:a:B:t=Adagio:mod=	!	!LO:DY:b:t=F
!	!LO:DY:t= :mod=%s	!	!	!	!	!
!	!LO:MO:mod=!LO&colon;DY&colon;ed=brack	!	!	!	!	!
!	!null	!	!	!	!	!
4E-\	p	4g 4B-/	p	4ee-\	4ee-/	f
4BB-/	.	4a- 4B-/	.	8.ff\L	8.ryyyy	.
.	.	.	.	16gg\Jk	16ryyyy	.
*	*	*	*	*v	*v	*
=2	=2	=2	=2	=2	=2
!LO:TX:t=P:problem:mixed beam	!	!	!	!	!
8EE-/L	.	4g [4B-/	.	[4ee-\	>
8E-\	.	.	.	.	.
8E-\J	.	8g 8B-/]	.	16ee-\LL]	.
.	.	.	.	(16b-\	.
8r	.	8r	.	16ee-\	.
.	.	.	.	16gg\JJ)	]]
=3	=3	=3	=3	=3	=3
!	!	!	!	!LO:MO:mod=!LO&colon;TX&colon;a&colon;i&colon;t=Dolce	!
!	!	!	!	!LO:TX:b:i:t=dol	!
8r	.	8r	.	8.bb-\L	.
8BB-/L	.	8d/L	.	.	.
.	.	.	.	16aa-\Jk	.
8C/	.	8e-/	.	8gg\L	.
.	.	8qqg/	.	8qqbb-/	.
8AA-/J	.	8f/J	.	8aa-\J	.
=4	=4	=4	=4	=4	=4
!LO:TX:t=P:problem:mixed beam	!	!	!	!	!
8BB-/L	.	(4e-/	.	(4gg\	.
8A-\	.	.	.	.	.
.	.	.	.	16qqff/LL	.
.	.	.	.	16qqaa-/	.
.	.	.	.	16qqgg/JJ	.
8BB-/J	.	8d/)	.	8ff\)	.
8r	.	8r	.	8r	.
!	!	!	!	!LO:LB:g=original	!
=5	=5	=5	=5	=5	=5
!	!	!	!	!	!LO:MO:mod=!null:null
!	!	!	!	!	!LO:DY:t=rinf
*	*	*	*	*xywh-#23:398,1104,3483,485	*
4A-\	.	[2cc\	<	4ff\	rfz
4En\	.	.	.	4gg\	.
=6	=6	=6	=6	=6	=6
!	!	!	!LO:DY:t= :mod=%s	!	!
!	!	!	!LO:MO:mod=!LO&colon;DY&colon;ed=	!	!
!	!	!	!null	!	!
4F\	.	8cc\]	[	(8.aa-\L	>
!	!	!	!LO:MO:mod=.	!	!
.	.	8r	[	.	.
.	.	.	.	16ccc\Jk)	.
4r	.	4r	.	16bb-\LL	.
.	.	.	.	16aa-\	.
.	.	.	.	16gg\	.
.	.	.	.	16ff\JJ	]]
=7	=7	=7	=7	=7	=7
!	!	!	!	!	!LO:MO:mod=.
.	.	.	.	8qqff/	p
!	!LO:DY:t= :mod=%s	!	!LO:DY:t= :mod=%s	!	!LO:DY:t= :mod=%s
!	!LO:MO:mod=!LO&colon;DY&colon;ed=brack	!	!LO:MO:mod=!LO&colon;DY&colon;ed=brack	!	!LO:MO:mod=!LO&colon;DY&colon;ed=
!	!null	!	!null	!	!null
4B-\	p	4g/	p	8ee-\L	p
.	.	.	.	8ee-\J	.
.	.	.	.	8qqgg/	.
4BB-/	.	4a-/	.	16.ff\LL	.
.	.	.	.	32ee-\K	.
.	.	.	.	16.ff\	.
.	.	.	.	32gg\JJk	.
=8	=8	=8	=8	=8	=8
8E-\L	.	8gL 8B-/	.	4ee-\	.
8EE-/	.	8g 8B-/	.	.	.
8EE-/J	.	8gJ 8B-/	.	8r	.
!	!	!	!	!	!LO:DY:b:t=F
8r	.	8r	.	16.gg\LL	f
.	.	.	.	32gg\JJk	.
=9	=9	=9	=9	=9	=9
8BBn/	.	16r	.	8.gg\L	.
.	.	(16d/LL	.	.	.
8r	.	16g/	.	.	.
.	.	16d/JJ)	.	16aa-\Jk	.
.	.	.	.	8qqaa-/	.
8BB/	.	16r	.	16gg\LL	.
.	.	(16d/LL	.	16ff\	.
.	.	.	.	8qqff/	.
8r	.	16g/	.	16ee-\	.
.	.	16d/JJ)	.	16dd\JJ	.
!	!	!LO:LB:g=original	!	!LO:LB:g=original	!
=10	=10	=10	=10	=10	=10
*	*	*xywh-#51:322,3103,3407,350	*	*xywh-#23:417,1513,3474,485	*
.	.	.	.	8qqdd/	.
8C/	.	16r	.	16ff\LL	.
!	!	!LO:SIC:s=(16e-/LL:v	!	!	!
.	.	(16d/LL	.	16ee-\JJ	.
8r	.	16g/	.	16r	.
!	!	!LO:SIC:s=16e-/JJ):v	!	!	!
.	.	16d/JJ)	.	16ee-\	.
!	!	!	!	!	!LO:MO:mod=.
.	.	.	.	16qqff/LL	p
.	.	.	.	16qqgg/JJ	.
!	!	!	!	!	!LO:DY:t= :mod=%s
!	!	!	!	!	!LO:MO:mod=!LO&colon;DY&colon;ed=
!	!	!	!	!	!null
8C/	.	16r	.	16ff\LL	p
!	!	!LO:SIC:s=(16e-/LL:v	!	!	!
.	.	(16d/LL	.	16ee-\	.
.	.	.	.	8qqee-/	.
8r	.	16g/	.	16dd\	.
!	!	!LO:SIC:s=16e-/JJ):v	!	!	!
.	.	16d/JJ)	.	16cc\JJ	.
=11	=11	=11	=11	=11	=11
8F\	.	16r	.	(16b-\LL	.
.	.	(16c/LL	.	16an\J)	.
8r	.	16f/	.	[8eee-\J	.
.	.	16c/JJ)	.	.	.
8AAn/	.	16r	.	32eee-\LLL]	>
.	.	.	.	(32ccc\	.
!	!	!	!	!LO:SIC:s=32aan\:v	!
.	.	(16c/LL	.	32aa-\	.
.	.	.	.	32bb-\	.
8r	.	16f/	.	32ccc\	.
!	!	!	!	!LO:SIC:s=32aa\:v	!
.	.	.	.	32aa-\	.
.	.	16c/JJ)	.	32ff\	.
.	.	.	.	32ee-\JJJ)	]]
!LO:LB:g=original	!	!	!	!	!
=12	=12	=12	=12	=12	=12
*xywh-#70:621,3989,3462,332	*	*	*	*	*
8BB-/	.	16r	.	(8.ff\L	p
.	.	(<16B-/LL	.	.	.
8r	.	16d/	.	.	.
!	!	!	!	!LO:MO:mod=*null:null	!
*	*	*	*	*Xtuplet	*
.	.	16f/JJ	.	48ee-\LL	.
.	.	.	.	48dd\	.
.	.	.	.	8qqff/	.
.	.	.	.	48ee-\JJJ	.
8BB-/	.	8b-\)	.	16dd\LL)	<
.	.	.	.	16bb-'\	.
8r	.	8r	.	16bb-'\	.
.	.	.	.	16bb-'\JJ	[[
!	!	!	!	!LO:LB:g=original	!
=13	=13	=13	=13	=13	=13
!	!	!	!	!	!LO:DY:t=rinf
!	!	!	!	!	!LO:MO:mod=.
*	*	*	*	*xywh-#23:360,1913,3436,504	*
.	.	.	.	8qqbb-/	rfz
!	!LO:MO:mod=!null:null	!	!LO:DY:b:t=F	!	!
!	!LO:DY:t=rinf	!	!LO:MO:mod=rfz	!	!
!	!	!	!	!	!LO:DY:t= :mod=%s
!	!	!	!	!	!LO:MO:mod=!LO&colon;DY&colon;ed=
!	!	!	!	!	!null
[2G-X\	rfz	(16b-\LL	f	4.ddd-X\	rfz
.	.	16dd-X\	.	.	.
.	.	16b-\	.	.	.
.	.	16dd-\JJ)	.	.	.
.	.	(16b-\LL	.	.	.
.	.	16dd-\	.	.	.
.	.	.	.	8qqccc-X/	.
.	.	16b-\	.	8bb-\	.
.	.	16dd-\JJ)	.	.	.
=14	=14	=14	=14	=14	=14
2G-\_	.	(16b-\LL	.	(16aa-X\LL	.
.	.	16dd-X\	.	16gg-X\J)	.
.	.	16b-\	.	[8gg-\J	.
.	.	16dd-\JJ)	.	.	.
.	.	(16b-\LL	.	16gg-\LL]	.
.	.	16dd-\	.	(16gg-\	.
.	.	16b-\	.	16bb-\	.
.	.	16dd-\JJ)	.	16gg-\JJ)	.
!	!	!LO:LB:g=original	!	!	!
=15	=15	=15	=15	=15	=15
*	*	*xywh-#51:317,3409,3461,350	*	*	*
8G-X\L]	>	(16b-\LL	>	16ff\LL	.
.	.	16dd-X\	.	16een\J	.
8G-\	.	16b-\	.	8.ee\J	.
.	.	16dd-\JJ)	.	.	.
8G-\	.	(16b-\LL	.	.	.
!	!	!	!	!LO:SIC:s=16ddd-\LL:v	!
.	.	16dd-\	.	16ddd\LL	.
8G-\J	]]	16b-\	.	16bb-\	.
!	!	!	!LO:MO:mod=]	!	!
.	.	16dd-\JJ)	]]	16ee\JJ	.
=16	=16	=16	=16	=16	=16
.	.	.	.	8qqee-/	.
4F;\	.	4an 4f;/	.	4ffT;\	.
4r	.	4r	.	4r	.
=17	=17	=17	=17	=17	=17
!	!	!	!	!LO:MO:mod=!LO&colon;TX&colon;a&colon;i&colon;t=Dolce	!
!	!	!	!	!LO:TX:a:i:t=dol	!
!	!LO:MO:mod=pp	!	!	!	!
[2B-\	p	(16b-/LL	pp	(8.ddn\L	.
.	.	16f/	.	.	.
.	.	16d/	.	.	.
.	.	16f/JJ)	.	32ee-\LL	.
.	.	.	.	32cc\JJJ)	.
.	.	(16d/LL	.	8b-'\L	.
.	.	16f/	.	.	.
.	.	16an/	.	8cc'\J	.
.	.	16f/JJ)	.	.	.
!	!	!	!	!LO:LB:g=original	!
=18	=18	=18	=18	=18	=18
*	*	*	*	*xywh-#23:408,2351,3474,475	*
2B-\]	.	(16b-/LL	.	(8.dd\L	.
.	.	16f/	.	.	.
.	.	16d/	.	.	.
.	.	16f/JJ)	.	32ee-\LL	.
.	.	.	.	32cc\JJJ)	.
.	.	.	.	8qqcc/	.
.	.	(16b-/LL	.	8ff\	.
.	.	16f/	.	.	.
.	.	16d/	.	8r	.
.	.	16f/JJ)	.	.	.
=19	=19	=19	=19	=19	=19
4An\	.	(16cc/LL	.	8.ee-T\L	.
.	.	16f/	.	.	.
.	.	16cc/	.	.	.
.	.	16f/JJ)	.	16ff\Jk	.
4B-\	.	(16b-/LL	.	8.ddt\L	.
.	.	16f/	.	.	.
.	.	16b-/	.	.	.
.	.	.	.	8qqff/	.
.	.	16f/JJ)	.	16ee-\Jk	.
=20	=20	=20	=20	=20	=20
!LO:TX:t=P:problem:mixed beam	!	!	!	!	!
8F\L	.	(16b-/LL	.	(4dd\	.
.	.	16f/	.	.	.
8FF/	.	16b-/	.	.	.
.	.	16f/JJ)	.	.	.
.	.	.	.	16qqcc/LL	.
.	.	.	.	16qqee-/	.
.	.	.	.	16qqdd/JJ	.
8F\J	.	(16an/LL	.	8cc\)	.
.	.	16f/	.	.	.
8r	.	16a/	.	8r	.
.	.	16f/JJ)	.	.	.
!	!	!LO:LB:g=original	!	!	!
=21	=21	=21	=21	=21	=21
!	!	!	!	!	!LO:MO:mod=!null:null
!	!	!	!	!	!LO:DY:t=rinf
!	!LO:DY:t= :mod=%s	!	!	!	!
!	!LO:MO:mod=!LO&colon;DY&colon;ed=brack	!	!	!	!
!	!null	!	!	!	!
*	*	*xywh-#51:322,3715,3428,350	*	*	*
4F#X\	rfz	16r	.	4cc\	rfz
!	!	!	!LO:DY:t= :mod=%s	!	!
!	!	!	!LO:MO:mod=!LO&colon;DY&colon;ed=brack	!	!
!	!	!	!null	!	!
.	.	(16d/LL	rfz	.	.
.	.	16an/	.	.	.
.	.	16g/JJ	.	.	.
4D\	.	8f#X/)	.	16r	.
.	.	.	.	(16an/LL	>
.	.	8r	.	16dd/	.
.	.	.	.	16cc/JJ)	.
=22	=22	=22	=22	=22	=22
4G\	.	16r	.	4b-\	]]
.	.	(16d/LL	.	.	.
.	.	16g/	.	.	.
.	.	16fn/JJ	.	.	.
8C\L	.	8en/L)	.	16r	.
.	.	.	.	(16g/LL	<
8En\J	.	[8c/J	.	16cc/	.
.	.	.	.	16b-/JJ)	[[
!	!	!	!	!LO:LB:g=original	!
=23	=23	=23	=23	=23	=23
*	*	*	*	*xywh-#23:332,2817,3559,380	*
!	!	!	!	!	!LO:DY:b:t=F
!	!LO:DY:t= :mod=%s	!	!	!	!
!	!LO:MO:mod=!LO&colon;DY&colon;ed=brack	!	!	!	!
!	!null	!	!	!	!
4Fn\	f	8c/L]	.	(16an\LL	f
.	.	.	.	16cc\	.
!	!	!	!LO:DY:t= :mod=%s	!	!
!	!	!	!LO:MO:mod=!LO&colon;DY&colon;ed=brack	!	!
!	!	!	!null	!	!
.	.	(16an/L	f	16ff\	.
!	!	!	!	!LO:SIC:s=16aan\JJ):v	!
.	.	16cc/JJ)	.	16aa-\JJ)	.
!LO:TX:t=P:problem:mixed beam	!	!	!	!	!
!	!	!	!	!LO:SIC:s=(16aa\LL:v	!
8c\L	.	(16cc/LL	.	(16aa-\LL	.
.	.	16b-/	.	16gg\	.
8C/J	.	16a/	.	16ff\	.
.	.	16g/JJ)	.	16een\JJ)	.
=24	=24	=24	=24	=24	=24
!	!	!LO:SIC:s=8an'/L:v	!	!	!
4F'\	pp	8a-'/L	pp	16gg'\KL	>
.	.	.	.	8ff'\	.
.	.	8b-'/	.	.	.
.	.	.	.	8een'\	.
8G'\L	.	8cc'/	.	.	.
.	.	.	.	(16ee-X\L	.
8An'\J	.	[8f'/J	.	16ff\	.
.	.	.	.	16ee-\JJ)	]]
=25	=25	=25	=25	=25	=25
!	!	!LO:TX:t=P:problem: X zapisany ołówkiem	!	!	!
!	!	!LO:MO:mod=!null:null	!	!	!
!	!	!LO:TX:a:t=X:color=grey	!	!	!
!	!LO:DY:t= :mod=%s	!	!	!	!LO:DY:t= :mod=%s
!	!LO:MO:mod=!LO&colon;DY&colon;ed=brack	!	!	!	!LO:MO:mod=!LO&colon;DY&colon;ed=brack
!	!null	!	!	!	!null
[2B-\	p	16f/LL]	.	(8.dd\L	p
.	.	16f/	p	.	.
.	.	16f/	.	.	.
.	.	16f/JJ	.	32ee-\LL	.
.	.	.	.	32cc\JJJ)	.
.	.	(16d/LL	.	8b-'\L	.
.	.	16f/	.	.	.
.	.	16an/	.	8cc'\J	.
.	.	16f/JJ)	.	.	.
!LO:LB:g=original	!	!LO:LB:g=original	!	!	!
=26	=26	=26	=26	=26	=26
*xywh-#70:571,4244,3506,355	*	*xywh-#51:344,4021,3396,366	*	*	*
2B-\]	.	(16b-/LL	.	(8.dd\L	.
.	.	16f/	.	.	.
.	.	16d/	.	.	.
.	.	16f/JJ)	.	32ee-\LL	.
.	.	.	.	32cc\JJJ	.
.	.	.	.	8qqcc/	.
.	.	(16d/LL	.	8ff\)	.
.	.	16f/	.	.	.
.	.	16b-/	.	8r	.
.	.	16f/JJ)	.	.	.
!	!	!	!	!LO:LB:g=original	!
=27	=27	=27	=27	=27	=27
*	*	*	*	*xywh-#23:370,3226,3493,428	*
4An\	.	(16cc/LL	.	8.ee-T\L	.
.	.	16f/	.	.	.
.	.	16cc/	.	.	.
.	.	16f/JJ)	.	16ff\Jk	.
4B-\	.	(16b-/LL	.	8.ddt\L	.
.	.	16f/	.	.	.
.	.	16b-/	.	.	.
.	.	16f/JJ)	.	16ee-\Jk	.
=28	=28	=28	=28	=28	=28
!LO:TX:t=P:problem:mixed beam	!	!	!	!	!
8F\L	.	(16b-/LL	.	(4dd\	.
.	.	16f/	.	.	.
8FF/	.	16b-/	.	.	.
.	.	16f/JJ)	.	.	.
.	.	.	.	16qqcc/LL	.
.	.	.	.	16qqee-/	.
.	.	.	.	16qqdd/JJ	.
8F\J	.	(16an/LL	.	8cc\)	.
.	.	16f/	.	.	.
8r	.	16a/	.	8r	.
.	.	16f/JJ)	.	.	.
=29	=29	=29	=29	=29	=29
(4F\	.	(16c/LL	.	8.ee-\L	.
.	.	16An/	.	.	.
.	.	16c/	.	.	.
!	!	!	!	!	!LO:DY:t=rinf
!	!	!	!	!	!LO:MO:mod=.
.	.	16A/JJ)	.	16cc\Jk	rfz
!	!LO:MO:mod=!null:null	!	!	!	!
!	!LO:DY:t=rinf	!	!	!	!
!	!	!	!LO:DY:t= :mod=%s	!	!LO:DY:t= :mod=%s
!	!	!	!LO:MO:mod=!LO&colon;DY&colon;ed=brack	!	!LO:MO:mod=!LO&colon;DY&colon;ed=
!	!	!	!null	!	!null
4E-X\)	rfz	(16f/LL	rfz	8.an/L	rfz
.	.	16c/	.	.	.
.	.	16f/	.	.	.
.	.	16c/JJ)	.	16f/Jk	.
=30	=30	=30	=30	=30	=30
4D\	.	4f 4B-/	.	(32b-\LLL	.
.	.	.	.	32cc\	.
.	.	.	.	32b-\	.
.	.	.	.	32an\	.
.	.	.	.	32b-\	.
.	.	.	.	32f\)	.
.	.	.	.	(32g'\	.
.	.	.	.	32a'\JJJ	.
4r	.	4r	.	32b-'\LLL	.
.	.	.	.	32cc'\	.
.	.	.	.	32dd'\	.
.	.	.	.	32ee-'\	.
.	.	.	.	32ff'\	.
.	.	.	.	32gg'\	.
!	!	!	!	!LO:SIC:s=32aan'\:v	!
.	.	.	.	32aa-'\	.
.	.	.	.	32bb-'\JJJ)	.
!	!	!	!	!LO:LB:g=original	!
=31	=31	=31	=31	=31	=31
*	*	*	*	*xywh-#23:351,3578,3483,494	*
.	.	.	.	8qqff#X/	p
8r	.	8r	.	(8.gg\L	.
8E-\L	pp	8c/L	pp	.	.
.	.	.	.	32ee-\LL	.
.	.	.	.	32cc\JJJ)	.
8F\	.	8d/	.	8b-\L	.
.	.	8qqf/	.	8qqdd/	.
8FF/J	.	8e-/J	.	8cc\J	.
!	!	!LO:LB:g=original	!	!	!
=32	=32	=32	=32	=32	=32
*	*	*xywh-#51:311,4322,3390,350	*	*	*
8BB-/L	.	4d/	.	[4b-\	.
8B-\J	.	.	.	.	.
4r	.	16d/LL	<	16b-\LL]	<
.	.	(16b-/	.	(16b-\	.
.	.	16an/	.	16cc\	.
.	.	16a-X/JJ)	[[	16dd\JJ)	[[
=33	=33	=33	=33	=33	=33
!	!	!	!LO:MO:mod=!null:null	!	!
!	!	!	!LO:DY:t=rinf	!	!LO:DY:b:t=F
!	!LO:DY:t= :mod=%s	!	!	!	!
!	!LO:MO:mod=!LO&colon;DY&colon;ed=	!	!	!	!
!	!null	!	!	!	!
4E-\	rfz	4g 4B-/	rfz	4ee-\	f
!	!LO:DY:t=rinf	!	!	!	!
!	!LO:MO:mod=.	!	!	!	!
4BB-/	rfz	4a- 4B-/	.	8.ff\L	.
.	.	.	.	16gg\Jk	.
=34	=34	=34	=34	=34	=34
16EE-/LL	.	4g [4B-/	.	[4ee-\	.
16E-/	.	.	.	.	.
16BB-/	.	.	.	.	.
16GG/JJ	.	.	.	.	.
8EE-/	.	8g 8B-/]	.	16ee-\LL]	.
.	.	.	.	(16b-\	.
8r	.	8r	.	16ee-\	.
.	.	.	.	16gg\JJ)	.
=35	=35	=35	=35	=35	=35
8r	.	8r	.	8.bb-\L	p
8BB-/L	p	8d/L	p	.	.
.	.	.	.	16aa-X\Jk	.
8C/	.	8e-/	.	8gg\L	.
.	.	8qqg/	.	8qqbb-/	.
8AA-/J	.	8f/J	.	8aa-\J	.
!	!	!	!	!LO:LB:g=original	!
=36	=36	=36	=36	=36	=36
*	*	*	*	*xywh-#23:360,3978,3445,485	*
8BB-/L	.	(4e-/	.	(4gg\	.
8B-\	.	.	.	.	.
.	.	.	.	16qqff/LL	.
.	.	.	.	16qqaa-/	.
.	.	.	.	16qqgg/JJ	.
8B-\J	.	8d/)	.	8ff\)	.
8r	.	8r	.	8r	.
=37	=37	=37	=37	=37	=37
!	!LO:MO:mod=!null:null	!	!	!	!LO:MO:mod=!null:null
!	!LO:DY:t=rinf	!	!	!	!LO:DY:t=rinf
4A-\	rfz	[2cc\	<	4ff\	rfz
4En\	.	.	.	4gg\	.
!LO:LB:g=original	!	!	!	!	!
=38	=38	=38	=38	=38	=38
*xywh-#70:627,4555,3434,382	*	*	*	*	*
4F\	.	8cc\]	.	4aa-\	.
.	.	8r	[	.	.
4r	.	4r	.	(16bb-\LL	.
.	.	.	.	16aa-\	.
.	.	.	.	16gg\	.
.	.	.	.	16ff\JJ)	.
=39	=39	=39	=39	=39	=39
.	.	.	.	8qqff/	.
!	!	!	!	!	!LO:DY:t= :mod=%s
!	!	!	!	!	!LO:MO:mod=!LO&colon;DY&colon;ed=brack
!	!	!	!	!	!null
4B-\	p	4g/	p	8ee-\L	p
.	.	.	.	8ee-\J	.
.	.	.	.	8qqgg/	.
4BB-/	.	4a-/	.	16.ff\LL	.
.	.	.	.	32ee-\K	.
.	.	.	.	16.ff\	.
.	.	.	.	32gg\JJk	.
=40	=40	=40	=40	=40	=40
!	!LO:DY:t= :mod=%s	!	!LO:DY:t= :mod=%s	!	!
!	!LO:MO:mod=!LO&colon;DY&colon;ed=	!	!LO:MO:mod=!LO&colon;DY&colon;ed=brack	!	!
!	!null	!	!null	!	!
16E-'\LL	rfz	16g'\LL	rfz	4ee-\	.
(16G\	.	(16b-\	.	.	.
!	!LO:DY:t=rinf	!	!	!	!
!	!LO:MO:mod=.	!	!	!	!
16A-\	rfz	16cc\	.	.	.
16G\JJ	.	16b-\JJ	.	.	.
16A-\LL	.	16cc\LL	.	4r	.
16G\	.	16b-\	.	.	.
16F\	.	16a-\	.	.	.
16E-\JJ)	.	16g\JJ)	.	.	.
!	!	!LO:LB:g=original	!	!	!
=41	=41	=41	=41	=41	=41
!	!	!	!LO:DY:t= :mod=%s	!	!
!	!	!	!LO:MO:mod=!LO&colon;DY&colon;ed=brack	!	!
!	!	!	!null	!	!
*	*	*xywh-#51:301,4601,3379,459	*	*	*
4B-\	p	4.d/	p	16r	.
.	.	.	.	(16aa-LL 16ff\	<
.	.	.	.	16bb- 16gg\	.
.	.	.	.	16aa-JJ 16ff\)	.
4BB-/	.	.	.	(16bb-LL 16gg\	.
.	.	.	.	16aa- 16ff\	.
.	.	(8a-/	.	16gg 16ee-\	.
.	.	.	.	16ffJJ 16dd\)	.
=42	=42	=42	=42	=42	=42
!	!	!LO:SIC:s=16g'/LL):v	!	!	!
*	*	*	*	*xywh-#23:360,4406,3474,590	*
16E-'\LL	.	16g/LL)	.	4gg 4ee-\	.
(16G\	.	(16b-/	.	.	.
16A-\	.	16cc/	.	.	.
16G\JJ	.	16b-/JJ	.	.	.
16A-\LL	.	16cc/LL	.	4r	[
16G\	.	16b-/	.	.	.
16F\	.	16a-/	.	.	.
16E-\JJ)	.	16g/JJ)	.	.	.
=43	=43	=43	=43	=43	=43
4B-\	.	4.d/	.	16r	.
.	.	.	.	(16aa-LL 16ff\	p
.	.	.	.	16bb- 16gg\	.
.	.	.	.	16aa-JJ 16ff\)	.
4BB-/	.	.	.	(16bb-LL 16gg\	.
.	.	.	.	16aa- 16ff\	.
.	.	8a-/	.	16gg 16ee-\	.
.	.	.	.	16ffJJ 16dd\)	.
=44	=44	=44	=44	=44	=44
!	!LO:DY:b:t=F	!	!	!	!LO:DY:b:t=F
16E-\LL	f	8g/	.	16ggKL 16ee-\	f
16G\	.	.	.	8gg 8ee-\	.
16E-\	.	8r	.	.	.
16D\JJ	.	.	.	8gg 8ee-\	.
!	!	!	!LO:DY:b:t=F	!	!
16C/LL	.	16e-/LL	f	.	.
16E-/	.	16g/	.	8gg 8ee-\	.
16C/	.	16e-/	.	.	.
16AAn/JJ	.	16c/JJ	.	16ggJk 16ee-\	.
=45	=45	=45	=45	=45	=45
4BB-;/	.	4B-;/	.	4gg 4ee-;\	.
4r;	.	4r;	.	4ff 4ddt;\	.
=46	=46	=46	=46	=46	=46
!	!LO:DY:t= :mod=%s	!	!	!	!LO:DY:t= :mod=%s
!	!LO:MO:mod=!LO&colon;DY&colon;ed=	!	!	!	!LO:MO:mod=!LO&colon;DY&colon;ed=
!	!null	!	!	!	!null
8E-'\	p	8g 8B-/	p	8ee-\	p
8r	.	8r	.	8r	.
!	!LO:MO:mod=.	!	!	!	!LO:MO:mod=.
8EE-/L	p	8gL 8B-/	.	8ee-\L	p
8EE-/J	.	8gJ 8B-/	.	8ee-\J	.
=47	=47	=47	=47	=47	=47
4EE-/	.	4g 4B-/	.	4ee-\	.
4r	.	4r	.	4r	.
==	==	==	==	==	==
*-	*-	*-	*-	*-	*-
!!!system-decoration: [(s1,s2,s3)]
!!!RDF**kern: > = above
!!!RDF**kern: < = below
!!!filter-modern: sic -sq | shed -e "s/LO:DY:(a|b|rj)/LO:dy:$1/L" | shed -e "s/TX(.*):t=P:/tx$1:t=P:/LG" | modori -m | autostem -r | shed -e "s/yy//" | shed -k -e "s/\(y([^y])/($1/" | shed -e "s/-//B" | shed -k -e "s/[<>]//g" | shed -k -e "s/r[a-gA-G]+/r/D"
!!!ENC: Marta Opryszak
!!!END: 2022-05-23
!!!EED: Jan Barakat
!!!EEV: 2022-07-01
!!!EED-modern: Antoni Szymański
!!!END-modern: 2022-08-18
!!!ENC-iiif: Konrad Tyszka
!!!END-iiif: 2022-09-04
